X:46
T: FRISCH AUF ZUM FROEHLICHEN JAGEN ES IST NUN AN DER ZEIT
N: B0055
O: Europa, Mitteleuropa, Deutschland
R: Kriegs -, Sieges -, Soldaten - Lied
M: 6/8
L: 1/16
K: Bb
F2 | B4B2B2A2B2 | c2B2
c2 | d4d2c2B2c2 | B6z4
F2 | B4B2B2A2B2 | c2B2
c2 | d4d2c2B2c2 | B6z4
de | f4d2d2c2d2 | e2c4z4
f2 | e4e2d2e2d2 | c8z2
F2 | B4B2B2A2B2 | c2B2
c2 | d4d2c2B2c2 | B6z4

@@@ Tune index: 1849
